X:30
T:Drowsy Maggie
M:C|
E:7
R:reel
K:EDor
~E2 BE dEBE|~E2BE AFDF|~E2 BE dEBE|BABc dAFD|~E2 BE dEBE|~E2BE AFDF|~E2 BE dEBE|BABc dAFA||
d2 fd c2 ec|defg afge|d2 fd c2 ec|BABc dAFA|d2 fd c2 ec|defg afge|afge fdec|BABc dAFD||
<end>
<start>
